X:201
T:EMD
C:David Grisman
N:Transcribed by Mike Stangeland
L:1/8
Q:1/4=265
M:4/4
K:G
z8 | "Em"EG ED EE EE | EE EE EG ED | "C7"^AG E=A AG GG | GG GG GG GG | "Em"EG ED EE EE | 
EE EE EG ED | "C7"^AG E=A AG zE | EG DE GD EG | "Em"EG ED EE EE | EE EE EG ED | 
"C7"^AG E=A AG GG | GG GG EG ED | "A7"A2 EG GG GG | GG GG GG GG | "C7"cB cB AG EG | 
"B7"B^A BA =AG ED | "Em"EG ED EG ED | EG ED EG ED | "C7"^AG E=A AG GG | GG GG GG GG | 
"Em"EG ED EG ED | EG ED EG ED | "C7"^AG E=A AG zE | EG zE GD EG | "Em"EG DE EE EE | 
EE EE EG DE | "C7"^AG E=A AG GG | GG GG EG GE | "A7"AA AA G2 EG | G2 AA AA AA | 
"C7"EF Gc cc cD | "B7"EF FB2B B2 | "Em"[fB]f ff ff ff | ff ff eB de | "C7"z2 [fB]f ff ff | 
ff ff ff Bd | "Em"dB GB AG ED | GE DE DB, A,G, | "C7"^A,D EF FF2F | FF ED EF2D | 
"Em"GD EF ED GA | Bd B2 ee ee | "C7"ee A^A =AG G_B | AG ED GE DE | "A7"zD ^CE DC2G, | 
^CD EG GE GD | "C7"EF Gc cc c2 | "B7"EF FB BB B2 | "Em"dB Ad BA dB | Ae2A dB dA | 
"C7"BA dB Ad2A | dB Ae eA dB | "Em"Ad2A dB Ae | BA dB Ad2A | "C7"^Ad2D GB =AG | 
EG EG, B,E DB, | "Em"A,G, B,D EG2E | GD EG G2 GD | "C7"GD EG G2 GD | EG3 GD EG | 
"A7"AA AA G2 EG | G2 AA AA AA | "C7"EF Gc cc cc | "B7"EF FB BB B2 | z8 | 
 

